build/images/icons/services-1.svg

<svg width="40" height="40" viewBox="0 0 40 40" fill="none" xmlns="http://www.w3.org/2000/svg">
<g clip-path="url(#clip0)">
<path d="M38.9126 40C38.5468 40 38.2008 39.7807 38.0568 39.4203L35.7583 33.6667C34.5774 30.757 33.2193 29.2882 31.3292 28.9437L30.849 31.236L31.5135 37.2135C31.5483 37.5268 31.4205 37.8361 31.1749 38.0335L29.6924 39.2247C29.5288 39.3562 29.3253 39.4279 29.1153 39.4279H28.5893C28.3794 39.4279 28.1758 39.3562 28.0122 39.2247L26.5295 38.0335C26.2837 37.8361 26.156 37.5268 26.1909 37.2135L26.8555 31.236L26.3751 28.9438C24.4852 29.2883 23.127 30.7577 21.9443 33.6715L19.6098 39.4249C19.4185 39.8962 18.8814 40.1235 18.4097 39.9322C17.9382 39.7409 17.7111 39.2035 17.9024 38.7321L20.2368 32.9785C21.2495 30.4837 23.0458 27.1875 27.0005 27.0268C27.0355 27.0227 27.0708 27.0207 27.1065 27.0207H30.5978C30.6335 27.0207 30.6689 27.0227 30.7039 27.0268C34.659 27.1875 36.4551 30.4839 37.4675 32.9784L39.7679 38.7367C39.9568 39.2092 39.7268 39.7453 39.2542 39.9339C39.1421 39.9787 39.0264 40 38.9126 40ZM28.0781 36.9141L28.8523 37.5361L29.6263 36.9142L29.0925 32.1127H28.612L28.0781 36.9141ZM28.5356 30.2701H29.1688L29.4636 28.8634H28.2409L28.5356 30.2701ZM1.08721 40C0.971814 40 0.854578 39.9782 0.741143 39.9322C0.269666 39.7409 0.0425644 39.2035 0.23385 38.7321L2.53365 33.0639C3.5578 30.5405 5.39488 27.1858 9.5085 27.1858H12.559C14.7765 27.1858 16.6016 28.1718 17.9837 30.1166C18.0065 30.1486 18.1112 30.2913 18.2383 30.4644C18.6786 31.0645 18.7956 31.2253 18.8342 31.2835C19.1149 31.708 18.9984 32.2795 18.5739 32.5602C18.1511 32.8399 17.5828 32.7254 17.3008 32.3053C17.2512 32.2341 16.9273 31.7926 16.7527 31.5544C16.6155 31.3676 16.503 31.2141 16.4811 31.1831C15.8437 30.2861 15.1312 29.6815 14.302 29.3465L11.7781 32.8051C11.6047 33.0427 11.3282 33.1833 11.0339 33.1833C10.7397 33.1833 10.4632 33.0427 10.2898 32.8051L7.76608 29.347C6.32781 29.93 5.22294 31.3369 4.24106 33.7566L1.94126 39.4248C1.79592 39.7828 1.45112 40 1.08721 40ZM9.81471 29.0284L11.0339 30.6992L12.2532 29.0284H9.81471ZM14.7501 39.9997H4.95196C4.44317 39.9997 4.03066 39.5871 4.03066 39.0784C4.03066 38.5696 4.44317 38.157 4.95196 38.157H14.7501C15.2589 38.157 15.6714 38.5696 15.6714 39.0784C15.6714 39.5871 15.2589 39.9997 14.7501 39.9997ZM33.0418 33.2938C32.533 33.2938 32.1205 32.8813 32.1205 32.3725V32.2573C32.1205 31.7485 32.533 31.3359 33.0418 31.3359C33.5506 31.3359 33.9631 31.7485 33.9631 32.2573V32.3725C33.9631 32.8813 33.5506 33.2938 33.0418 33.2938ZM11.0339 25.8337C8.45625 25.8337 6.35914 23.7366 6.35914 21.1588C6.35914 19.0355 7.78186 17.2385 9.72397 16.6708C9.73341 16.6678 9.74285 16.6648 9.75253 16.6621C10.0602 16.5745 10.3766 16.519 10.6969 16.4961H10.6971C10.6985 16.4958 10.7001 16.4956 10.7016 16.4957C10.7038 16.4955 10.7053 16.4954 10.7069 16.4954C10.7088 16.4952 10.7107 16.4952 10.7126 16.4949C10.7146 16.4949 10.7159 16.4948 10.7177 16.4946C10.7201 16.4947 10.7217 16.4943 10.7236 16.4942C10.7252 16.4937 10.7267 16.494 10.7283 16.4939C10.732 16.494 10.7353 16.4935 10.7389 16.4932C10.7541 16.4921 10.7692 16.4913 10.7845 16.4906L10.7847 16.4905C10.7897 16.4903 10.7946 16.4901 10.7996 16.4898C10.8012 16.4899 10.806 16.4894 10.8096 16.4893C10.8109 16.4894 10.8126 16.4893 10.8143 16.489C10.8163 16.4888 10.8181 16.4889 10.8201 16.4888C10.8217 16.4887 10.8227 16.4887 10.8246 16.4886C10.826 16.4886 10.8271 16.4885 10.8288 16.4885C10.8306 16.4881 10.8324 16.4882 10.8339 16.4882C10.8356 16.488 10.837 16.4878 10.8392 16.488C10.8405 16.4878 10.8416 16.4876 10.8432 16.4878C10.8468 16.4875 10.8505 16.4885 10.8539 16.4873C10.9111 16.4851 10.9683 16.4841 11.0257 16.484C11.0271 16.4841 11.0283 16.484 11.0297 16.484C11.0311 16.484 11.0326 16.484 11.0338 16.484C11.0341 16.484 11.0341 16.484 11.0341 16.484C11.0387 16.484 11.0434 16.484 11.0479 16.484H11.048C11.0504 16.484 11.0531 16.4838 11.0552 16.484C11.0574 16.4841 11.0607 16.4842 11.0626 16.4841C11.0653 16.4841 11.0681 16.4842 11.0706 16.4841C11.0715 16.4841 11.0725 16.4841 11.0734 16.4841C13.3647 16.503 15.2745 18.1516 15.6443 20.3823C15.6866 20.6349 15.7088 20.8942 15.7088 21.1588C15.7089 23.7366 13.6118 25.8337 11.0339 25.8337ZM9.37675 18.8633C8.66539 19.3783 8.20174 20.2155 8.20174 21.1589C8.20174 22.7207 9.47222 23.9912 11.0339 23.9912C12.3576 23.9912 13.4722 23.0784 13.781 21.8492C11.7796 21.8606 10.0586 20.6411 9.37675 18.8633ZM11.1503 18.329C11.5765 19.2927 12.5192 19.9591 13.6202 20.0043C13.1923 19.0499 12.2512 18.3738 11.1503 18.329ZM28.8521 25.6205C26.2433 25.6205 24.1208 23.498 24.1208 20.8891C24.1208 18.2803 26.2433 16.1578 28.8521 16.1578C29.1642 16.1578 29.4695 16.1882 29.765 16.2463C29.7842 16.2495 29.8035 16.2534 29.8228 16.258C31.9677 16.707 33.5835 18.613 33.5835 20.8892C33.5835 23.498 31.461 25.6205 28.8521 25.6205ZM27.2155 18.5099C26.4598 19.0314 25.9634 19.9035 25.9634 20.8891C25.9634 22.482 27.2592 23.7779 28.8521 23.7779C30.445 23.7779 31.7409 22.482 31.7409 20.8891C31.7409 19.7038 31.0233 18.683 29.9998 18.2381C29.6133 18.7359 29.1302 19.1531 28.5753 19.4645C28.1316 19.7137 27.5701 19.5558 27.321 19.1121C27.214 18.9218 27.1821 18.7097 27.2155 18.5099ZM7.02881 15.9878C6.86781 15.9878 6.70681 15.9457 6.56309 15.8614C6.28094 15.696 6.1075 15.3936 6.1075 15.0665V6.76525C6.1075 5.1517 7.42025 3.83907 9.03379 3.83907H12.3023C12.8111 3.83907 13.2237 4.25158 13.2237 4.76037C13.2237 5.26916 12.8111 5.68168 12.3023 5.68168H9.03379C8.43633 5.68168 7.95011 6.16778 7.95011 6.76525V13.4942L9.21863 12.7833C9.35625 12.7062 9.51138 12.6657 9.66903 12.6657H17.6634C18.1722 12.6657 18.5847 13.0782 18.5847 13.587C18.5847 14.0958 18.1722 14.5083 17.6634 14.5083H9.90949L7.47909 15.8703C7.33917 15.9487 7.18393 15.9878 7.02881 15.9878ZM28.8571 14.0795C28.603 14.0795 28.3542 13.9742 28.1762 13.779L25.3402 10.6693H17.8906C16.2772 10.6693 14.9646 9.35664 14.9646 7.74321V2.92617C14.9646 1.31263 16.2772 0 17.8906 0H26.8518C28.4653 0 29.7781 1.31263 29.7781 2.92617V13.1582C29.7781 13.5386 29.5444 13.8798 29.1897 14.0172C29.0815 14.0592 28.9687 14.0795 28.8571 14.0795ZM17.8906 1.84261C17.2932 1.84261 16.8072 2.32871 16.8072 2.92617V7.74309C16.8072 8.34056 17.2933 8.82655 17.8906 8.82655H25.7468C26.0059 8.82655 26.2531 8.93561 26.4275 9.12701L27.9356 10.7805V2.92617C27.9356 2.32871 27.4494 1.84261 26.8519 1.84261H17.8906ZM12.118 9.16432H10.4465C9.93771 9.16432 9.52519 8.75181 9.52519 8.24302C9.52519 7.73423 9.93771 7.32171 10.4465 7.32171H12.118C12.6268 7.32171 13.0393 7.73423 13.0393 8.24302C13.0393 8.75181 12.6268 9.16432 12.118 9.16432ZM25.243 5.37903H21.4402C20.9314 5.37903 20.5189 4.96652 20.5189 4.45773C20.5189 3.94894 20.9314 3.53642 21.4402 3.53642H25.243C25.7518 3.53642 26.1643 3.94894 26.1643 4.45773C26.1643 4.96652 25.7518 5.37903 25.243 5.37903Z" fill="#EAC57E"/>
<path d="M38.9126 40C38.5468 40 38.2008 39.7807 38.0568 39.4203L35.7583 33.6667C34.5774 30.757 33.2193 29.2883 31.3292 28.9437L30.849 31.236L31.5135 37.2135C31.5483 37.5268 31.4205 37.8361 31.1749 38.0335L29.6924 39.2247C29.5288 39.3563 29.3253 39.4279 29.1153 39.4279H28.5893C28.3794 39.4279 28.1758 39.3563 28.0122 39.2247L26.5295 38.0335C26.2837 37.8361 26.156 37.5268 26.1909 37.2135L26.8555 31.236L26.3751 28.9438C24.4852 29.2884 23.127 30.7577 21.9443 33.6715L19.6098 39.4249C19.4185 39.8963 18.8814 40.1235 18.4097 39.9322C17.9382 39.7409 17.7111 39.2035 17.9024 38.7321L20.2368 32.9785C21.2495 30.4838 23.0458 27.1876 27.0005 27.0268C27.0355 27.0228 27.0708 27.0207 27.1065 27.0207H30.5978C30.6335 27.0207 30.6689 27.0228 30.7039 27.0268C34.659 27.1876 36.4551 30.4839 37.4675 32.9784L39.7679 38.7367C39.9568 39.2092 39.7268 39.7453 39.2542 39.9339C39.1421 39.9787 39.0264 40 38.9126 40ZM28.0781 36.9141L28.8523 37.5361L29.6263 36.9142L29.0925 32.1127H28.612L28.0781 36.9141ZM28.5356 30.2701H29.1688L29.4636 28.8634H28.2409L28.5356 30.2701ZM1.08721 40C0.971814 40 0.854578 39.9782 0.741143 39.9322C0.269666 39.7409 0.0425644 39.2035 0.23385 38.7321L2.53365 33.0639C3.5578 30.5405 5.39488 27.1858 9.5085 27.1858H12.559C14.7765 27.1858 16.6016 28.1719 17.9837 30.1166C18.0065 30.1486 18.1112 30.2913 18.2383 30.4644C18.6786 31.0645 18.7956 31.2253 18.8342 31.2836C19.1149 31.7081 18.9984 32.2795 18.5739 32.5603C18.1511 32.8399 17.5828 32.7254 17.3008 32.3053C17.2512 32.2341 16.9273 31.7926 16.7527 31.5544C16.6155 31.3676 16.503 31.2141 16.4811 31.1831C15.8437 30.2861 15.1312 29.6815 14.302 29.3465L11.7781 32.8051C11.6047 33.0427 11.3282 33.1833 11.0339 33.1833C10.7397 33.1833 10.4632 33.0427 10.2898 32.8051L7.76608 29.347C6.32781 29.9301 5.22294 31.3369 4.24106 33.7566L1.94126 39.4248C1.79592 39.7828 1.45112 40 1.08721 40ZM9.81471 29.0284L11.0339 30.6992L12.2532 29.0284H9.81471ZM14.7501 39.9997H4.95196C4.44317 39.9997 4.03066 39.5872 4.03066 39.0784C4.03066 38.5696 4.44317 38.1571 4.95196 38.1571H14.7501C15.2589 38.1571 15.6714 38.5696 15.6714 39.0784C15.6714 39.5872 15.2589 39.9997 14.7501 39.9997ZM33.0418 33.2938C32.533 33.2938 32.1205 32.8813 32.1205 32.3725V32.2573C32.1205 31.7485 32.533 31.336 33.0418 31.336C33.5506 31.336 33.9631 31.7485 33.9631 32.2573V32.3725C33.9631 32.8813 33.5506 33.2938 33.0418 33.2938ZM11.0339 25.8337C8.45625 25.8337 6.35914 23.7366 6.35914 21.1588C6.35914 19.0355 7.78186 17.2385 9.72397 16.6708C9.73341 16.6678 9.74285 16.6648 9.75253 16.6621C10.0602 16.5745 10.3766 16.519 10.6969 16.4961C10.6982 16.4958 10.7001 16.4956 10.7016 16.4957C10.7038 16.4955 10.7053 16.4954 10.7069 16.4954C10.7088 16.4953 10.7107 16.4953 10.7126 16.4949C10.7146 16.4949 10.7159 16.4948 10.7177 16.4946C10.7201 16.4947 10.7217 16.4943 10.7236 16.4942C10.7252 16.4938 10.7267 16.494 10.7283 16.4939C10.732 16.494 10.7353 16.4935 10.7389 16.4932C10.7541 16.4922 10.7692 16.4913 10.7845 16.4907C10.7895 16.4904 10.7946 16.4901 10.7996 16.4899C10.8012 16.49 10.806 16.4894 10.8096 16.4893C10.8109 16.4894 10.8126 16.4893 10.8143 16.489C10.8163 16.4888 10.8181 16.4889 10.8201 16.4888C10.8217 16.4887 10.8227 16.4887 10.8246 16.4886C10.826 16.4886 10.8271 16.4885 10.8288 16.4885C10.8306 16.4881 10.8324 16.4882 10.8339 16.4882C10.8356 16.488 10.837 16.4878 10.8392 16.488C10.8405 16.4878 10.8416 16.4877 10.8432 16.4878C10.8468 16.4875 10.8505 16.4885 10.8539 16.4873C10.9111 16.4851 10.9683 16.4841 11.0257 16.484C11.0272 16.4841 11.0283 16.484 11.0297 16.484C11.0311 16.484 11.0326 16.484 11.0338 16.484C11.0384 16.484 11.0434 16.484 11.0479 16.484C11.0503 16.484 11.0531 16.4839 11.0552 16.484C11.0574 16.4841 11.0607 16.4842 11.0626 16.4841C11.0653 16.4841 11.0681 16.4842 11.0706 16.4841H11.0734C13.3647 16.503 15.2745 18.1517 15.6443 20.3824C15.6866 20.6349 15.7088 20.8943 15.7088 21.1588C15.7089 23.7366 13.6118 25.8337 11.0339 25.8337ZM9.37675 18.8634C8.66539 19.3784 8.20174 20.2155 8.20174 21.1589C8.20174 22.7207 9.47222 23.9912 11.0339 23.9912C12.3576 23.9912 13.4722 23.0784 13.781 21.8492C11.7796 21.8606 10.0586 20.6411 9.37675 18.8634ZM11.1503 18.329C11.5765 19.2927 12.5192 19.9591 13.6202 20.0043C13.1923 19.0499 12.2512 18.3738 11.1503 18.329ZM28.8521 25.6205C26.2433 25.6205 24.1208 23.498 24.1208 20.8891C24.1208 18.2803 26.2433 16.1578 28.8521 16.1578C29.1642 16.1578 29.4695 16.1882 29.765 16.2463C29.7842 16.2495 29.8035 16.2534 29.8228 16.258C31.9677 16.707 33.5835 18.613 33.5835 20.8892C33.5835 23.498 31.461 25.6205 28.8521 25.6205ZM27.2155 18.5099C26.4598 19.0314 25.9634 19.9035 25.9634 20.8891C25.9634 22.482 27.2592 23.7779 28.8521 23.7779C30.445 23.7779 31.7409 22.482 31.7409 20.8891C31.7409 19.7038 31.0234 18.683 29.9998 18.2381C29.6133 18.7359 29.1302 19.1531 28.5753 19.4645C28.1316 19.7137 27.5701 19.5558 27.321 19.1121C27.214 18.9219 27.1821 18.7097 27.2155 18.5099Z" fill="#EAC57E"/>
</g>
<defs>
<clipPath id="clip0">
<rect width="40" height="40" fill="white"/>
</clipPath>
</defs>
</svg>

<svg width="40" height="40" fill="none" xmlns="http://www.w3.org/2000/svg"><g clip-path="url(#clip0)" fill="#EAC57E"><path d="M38.913 40a.922.922 0 01-.856-.58l-2.299-5.753c-1.18-2.91-2.539-4.379-4.429-4.723l-.48 2.292.665 5.978a.922.922 0 01-.34.82l-1.482 1.19a.921.921 0 01-.577.204h-.526a.921.921 0 01-.577-.203l-1.483-1.192a.92.92 0 01-.338-.82l.665-5.977-.48-2.292c-1.89.344-3.249 1.814-4.432 4.728l-2.334 5.753a.921.921 0 01-1.708-.693l2.335-5.754c1.013-2.494 2.809-5.79 6.764-5.951a.91.91 0 01.105-.006h3.492c.036 0 .07.002.106.006 3.955.16 5.751 3.457 6.764 5.951l2.3 5.759A.92.92 0 0138.913 40zm-10.835-3.086l.774.622.774-.622-.534-4.801h-.48l-.534 4.801zm.458-6.644h.633l.295-1.407H28.24l.295 1.407zM1.087 40a.921.921 0 01-.853-1.268l2.3-5.668c1.024-2.523 2.86-5.878 6.975-5.878h3.05c2.218 0 4.043.986 5.425 2.93.022.033.127.175.254.348.44.6.558.761.596.82a.921.921 0 01-1.533 1.021l-.548-.75c-.137-.187-.25-.34-.272-.372-.637-.897-1.35-1.502-2.179-1.837l-2.524 3.46a.921.921 0 01-1.488 0l-2.524-3.459c-1.438.583-2.543 1.99-3.525 4.41l-2.3 5.668a.922.922 0 01-.854.575zm8.728-10.972l1.219 1.671 1.22-1.67h-2.44zM14.75 40H4.952a.921.921 0 010-1.843h9.798a.921.921 0 010 1.843zm18.292-6.706a.921.921 0 01-.922-.921v-.116a.921.921 0 011.843 0v.116a.921.921 0 01-.921.92zm-22.008-7.46a4.68 4.68 0 01-4.675-4.675 4.683 4.683 0 014.338-4.663h.01l.006-.001h.011l.004-.001h.01l.046-.003.016-.001h.01a.02.02 0 00.004-.001h.02l.005-.001h.014a4.68 4.68 0 01.173-.004h.047a4.655 4.655 0 014.571 3.898 4.68 4.68 0 01-4.61 5.451zm-1.657-6.97a2.83 2.83 0 001.657 5.127 2.837 2.837 0 002.747-2.142 4.664 4.664 0 01-4.404-2.986zm1.773-.535a2.82 2.82 0 002.47 1.675 2.838 2.838 0 00-2.47-1.675zm17.702 7.291a4.737 4.737 0 01-4.731-4.73 4.737 4.737 0 015.702-4.632 4.74 4.74 0 013.76 4.631 4.737 4.737 0 01-4.73 4.732zm-1.637-7.11A2.888 2.888 0 1030 18.238c-.387.498-.87.915-1.425 1.227a.921.921 0 01-1.36-.955zM7.03 15.988a.92.92 0 01-.921-.921V6.764A2.93 2.93 0 019.034 3.84h3.268a.921.921 0 010 1.843H9.034c-.598 0-1.084.486-1.084 1.083v6.73l1.269-.712a.922.922 0 01.45-.117h7.994a.921.921 0 010 1.842H9.91L7.48 15.87a.92.92 0 01-.45.118zm21.828-1.909a.921.921 0 01-.68-.3l-2.837-3.11h-7.45a2.93 2.93 0 01-2.925-2.926V2.926A2.93 2.93 0 0117.89 0h8.96a2.93 2.93 0 012.927 2.926v10.232a.921.921 0 01-.92.921zM17.891 1.843c-.598 0-1.084.486-1.084 1.083v4.817c0 .598.486 1.084 1.084 1.084h7.856c.259 0 .506.109.68.3l1.509 1.653V2.926c0-.597-.487-1.083-1.084-1.083H17.89zm-5.773 7.321h-1.671a.921.921 0 010-1.842h1.671a.921.921 0 010 1.842zM25.243 5.38H21.44a.921.921 0 010-1.843h3.803a.921.921 0 010 1.843z"/><path d="M38.913 40a.922.922 0 01-.856-.58l-2.299-5.753c-1.18-2.91-2.539-4.379-4.429-4.723l-.48 2.292.665 5.978a.922.922 0 01-.34.82l-1.482 1.19a.92.92 0 01-.577.204h-.526a.92.92 0 01-.577-.203l-1.483-1.192a.92.92 0 01-.338-.82l.665-5.977-.48-2.292c-1.89.344-3.249 1.814-4.432 4.728l-2.334 5.753a.921.921 0 01-1.708-.693l2.335-5.754c1.013-2.494 2.809-5.79 6.764-5.951a.932.932 0 01.105-.006h3.492c.036 0 .07.002.106.006 3.955.16 5.751 3.457 6.764 5.951l2.3 5.759A.92.92 0 0138.913 40zm-10.835-3.086l.774.622.774-.622-.534-4.801h-.48l-.534 4.801zm.458-6.644h.633l.295-1.407H28.24l.295 1.407zM1.087 40a.921.921 0 01-.853-1.268l2.3-5.668c1.024-2.523 2.86-5.878 6.975-5.878h3.05c2.218 0 4.043.986 5.425 2.93.022.033.127.175.254.348.44.6.558.761.596.82a.921.921 0 01-1.533 1.021l-.548-.75c-.137-.187-.25-.34-.272-.372-.637-.897-1.35-1.502-2.179-1.837l-2.524 3.46a.921.921 0 01-1.488 0l-2.524-3.459c-1.438.583-2.543 1.99-3.525 4.41l-2.3 5.668a.922.922 0 01-.854.575zm8.728-10.972l1.219 1.671 1.22-1.67h-2.44zM14.75 40H4.952a.921.921 0 010-1.843h9.798a.921.921 0 010 1.843zm18.292-6.706a.921.921 0 01-.922-.921v-.116a.921.921 0 011.843 0v.116a.921.921 0 01-.921.92zm-22.008-7.46a4.68 4.68 0 01-4.675-4.675 4.683 4.683 0 014.348-4.664h.017l.004-.001h.01a1.717 1.717 0 01.062-.004h.01a.02.02 0 00.004-.001h.02l.005-.001h.014a4.68 4.68 0 01.173-.004h.047a4.655 4.655 0 014.571 3.898 4.68 4.68 0 01-4.61 5.451zm-1.657-6.97a2.83 2.83 0 001.657 5.127 2.837 2.837 0 002.747-2.142 4.665 4.665 0 01-4.404-2.986zm1.773-.535a2.82 2.82 0 002.47 1.675 2.838 2.838 0 00-2.47-1.675zm17.702 7.291a4.737 4.737 0 01-4.731-4.73 4.737 4.737 0 015.702-4.632 4.74 4.74 0 013.76 4.631 4.737 4.737 0 01-4.73 4.732zm-1.637-7.11A2.888 2.888 0 1030 18.238c-.387.498-.87.915-1.425 1.227a.921.921 0 01-1.36-.955z"/></g><defs><clipPath id="clip0"><path fill="#fff" d="M0 0h40v40H0z"/></clipPath></defs></svg>
